X:698
%%etbk:tnset id:415,pos:2,rep:3x,ant:
%%etbk:wsite https://thesession.org/tunes/727
%%etbk:video src:ytube,cde:Xn4Xiojy5nU,desc:second tune
%%etbk:video src:ytube,cde:LwJ0w5ThmPo,desc:
%%etbk:pldat 2016-09-17T15:31,2016-09-13T16:27,2016-09-11T16:52,2016-09-10T15:43,2016-09-06T18:07,2016-09-03T11:32,2016-08-06T12:43,2016-08-02T17:38,2016-07-15T16:48,2016-06-14T17:30,2016-05-10T19:38,2016-04-20T16:07,2016-04-12T17:13,2016-04-11T18:37,2016-03-23T17:40,2016-03-20T10:52,2016-02-13T15:22,2016-02-08T18:34,2016-01-26T18:03,2016-01-24T15:23,2016-01-20T17:36,2016-01-19T17:28,2016-01-17T14:14,2016-01-16T16:04,2016-01-12T17:42,2016-01-04T19:29,2016-01-02T14:53,2015-12-14T18:35,2015-06-13T16:58,2015-06-09T17:31,2015-05-25T11:12,2015-05-06T18:06,2015-04-26T20:54
T: Brenda Stubbert's
Z: Piano Box Version by Martin Fleischmann
H: Created 2015-04-26 /  Last Modified 2015-05-06
R: reel
M: 4/4
L: 1/8
K: Ador
|:!2!A2BA GAAB|!2!A2Bd !5!eddB|!1!G2BA BGGB|!4!c2BA BGGB|
!2!~A3B GABG|!2!A2B!4!d !2!edd!5!a|!4!gedB GABd|e2dB eA~A2:|
Aza2 Azg2|eage ageg|G2BA BGGB|c2BA BGGB|
|1Aza2 Azg2|eage agea|gedB GABd|e2dB eA~A2:|
|2A3A GABG|A2Bd edda|gedB GABd|e2dB eA~A2||


